!!!PDT:	1923
!!!LANG: Non-Tone
!!!LING_GROUP: Siouan
!!!REG: Dakotas
!!!COM: Anon.
!!!OTL: Song of the Spirit Women (Version 2)
!!!ODT: <1918//
!!!MPN: Wopite [Scattered Corn, Mrs. Holding Eagle]
!!!MLC: Fort Berthold Reservation, North Dakota, United States of America
!! Song was recorded during either the summer of 1912, 1915, or 1918.
!!!AGN: monody
!!!SOCIAL_FUNCTION: Ceremony of the Little River Women Society
!!!AMT: irregular
!!!RWG: Transcribed pitches, durations, and meters are only approximate.
!! Drum not recorded.
**kern
*ICvox
*Ifemale
*clefG2
*k[f#c#g#d#]
*M3/4
*MM100
16cc#
=1
16b
8.g#
8.b
16cc#
(12cc#
12b
12g#)
*M2/4
=2
16b
8.g#
4g#
*M3/4
=3
2e
(16cc#
16b
16g#
16e)
*M2/4
=4
8.g#
16b
(12b
12g#
12e)
=5
16g#
8.e
4e
*M3/4
=6
(12e
12B
12B)
8.B
16c#
8.B
16G#
*M2/4
=7
16B
8.G#
4G#
=8
[4E
8.E]
16B
*M3/4
=9
8.B
16B
8.B
16c#
8.B
16G#
*M2/4
=10
16B
8.G#
4G#
=11
4E
8.E
16E
=12
4.E;
8b
*M3/4
=13
(8g#
8e)
8.g#
16b
(12b
12g#
12e)
*M2/4
=14
[4e
8.e]
16e
*M3/4
=15
4B
8.B
16c#
8.B
16G#
*M2/4
=16
16B
8.G#
4G#
=17
4.E
8B
*M3/4
=18
8B
8B
8.B
16c#
(8.B
16G#)
*M2/4
=19
(16B
8.G#)
4G#
=20
4E
8.E
16E
=21
2E
==
*-
!!!CNT: Mandan
!!!TXO: Mandan
!!!OCY: United States
!!!OCL: Frances Densmore
!!!YOR: Frances Densmore, "Mandan and Hidatsa Music",
!!!YOR: Bulletin 80, page 102, No. 39b
!!!PPR: Smithsonian Institution, Bureau of American Ethnology
!!!PPR: Government Printing Office
!!!PDT: 1923
!!!PPP: Washington, DC, United States of America
!!!YEC: Electronic Copyright 2000 David Huron
!!!YER: August 2000
!!!YEN: United States of America
!!!ENC: David Huron
!!!RDT: August 16, 2000
!!!EEV: Release 1.0
!!!AIN: tom, vox
